vendor/shopware/storefront/Resources/app/storefront/dist/assets/icon/solid/stack-filter.svg

<svg xmlns="http://www.w3.org/2000/svg" width="16" height="16" viewBox="0 0 16 16">
  <path fill="#758CA3" fill-rule="evenodd" d="M5,9 C4.44771525,9 4,8.55228475 4,8 C4,7.44771525 4.44771525,7 5,7 L11,7 C11.5522847,7 12,7.44771525 12,8 C12,8.55228475 11.5522847,9 11,9 L5,9 Z M3,5 C2.44771525,5 2,4.55228475 2,4 C2,3.44771525 2.44771525,3 3,3 L13,3 C13.5522847,3 14,3.44771525 14,4 C14,4.55228475 13.5522847,5 13,5 L3,5 Z M7,13 C6.44771525,13 6,12.5522847 6,12 C6,11.4477153 6.44771525,11 7,11 L9,11 C9.55228475,11 10,11.4477153 10,12 C10,12.5522847 9.55228475,13 9,13 L7,13 Z"/>
</svg>

<svg xmlns="http://www.w3.org/2000/svg" width="16" height="16" viewBox="0 0 16 16"><path fill="#758CA3" fill-rule="evenodd" d="M5 9c-.5523 0-1-.4477-1-1s.4477-1 1-1h6c.5523 0 1 .4477 1 1s-.4477 1-1 1H5zM3 5c-.5523 0-1-.4477-1-1s.4477-1 1-1h10c.5523 0 1 .4477 1 1s-.4477 1-1 1H3zm4 8c-.5523 0-1-.4477-1-1s.4477-1 1-1h2c.5523 0 1 .4477 1 1s-.4477 1-1 1H7z"/></svg>
